X:704
T: GUTER FREUND ICH FRAGE DICH
N: E2131B
O: Europa, Mitteleuropa, Deutschland, Hessen, Nassau, Dill - Kreis
R: geistliches Lied, Curiosum
M: 2/4
L: 1/16
K: F
 | A3AA3A | A2c2c4 |
c3BB3B | c2B2A4 |
A3AA3c | c4B4 | A4z4 |
A3AA3A | A2c2c4 |
B3BB2B2 | c2A2A2
A2 | A3AA2c2 | c4B4 | A4z4

@@@ Tune index: 5388
